X: 2067
M: 3/2
L: 1/8
K: G
(G2B2)d2 e4(e/f/g) | a4(fg) f3ed2 |\
g4(fg) e3dc2 | d2B2(B/c/d) e6 |\
e4(B/c/d) B4(A/B/c) | A3GF2 G6 |
d2(B2c2) A3Bc2 | (G2E2)F2 G3AB2 |\
c3BA2 A4E2 | HG4 |]


